X: 55
T: Earl of Mansfield
M: C|
B: NEFR #55
Z: Mary Lou Knack?
R: reel
K: A
cB |\
"A"A3B  A2E2 | ABcd e2dc | "E7"B3c  B2E2 | GABc d2cB |\
"A"A3B  A2E2 | ABcd e2dc | "E7"d2B2 G2E2 | "A"A6 :|
ed |\
"A"c2A2 A2ed | c2A2 A2Bc | "E7"d2B2 G2B2 | G2E2 E2ed |\
"A"c2A2 A2ed | c2A2 A2Bc | "E7"d2B2 G2E2 | "A"A6 ed |
"A"c2A2 A2ed | c2A2 A2Bc | "E7"d2B2 G2B2 | G2E2 E2cB |\
"A"A3B  A2E2 | ABcd e2dc | "E7"dcB2 G2E2 | "A"A6 |]
